X: 119
T:Missa Mater patris / Sanctus
N: Derived from Jos1001d-Missa_Mater_patris-Sanctus.krn
C: Josquin des Prez
%%abc-version 2.0
%%abcx-abcm2ps-target-version 5.9.1 (29 Sep 2008)
%%abc-creator hum2abc beta
%%abcx-conversion-date 2019/02/12 16:15:43
%%abc-edited-by Jesse Rodin
%%abc-edited-by Will Watson 17/08/2011
%%abcx-initial-encoding-date 2011/08/17/
%%humdrum-veritas 3269626784
%%humdrum-veritas-data 3999237866
%%linebreak <none>
%%barnumbers 0
L: 1/4
M: 2/1
Q: 1/2=120
%%staves [1 2 3 4]
V: 1 clef=treble-8
V: 2 clef=treble-8
V: 3 clef=treble-8
V: 4 clef=bass
K: F
[V:1] z8 | 
[V:2] z8 | 
[V:3] z8 | 
[V:4] G,8 | 
[V:1] z8 | 
[V:2] z8 | 
[V:3] z8 | 
[V:4] G,4F,4 | 
[V:1] z8 | 
[V:2] G8 | 
[V:3] z8 | 
[V:4] B,6G,2 | 
[V:1] z8 | 
[V:2] G4F4 | 
[V:3] z8 | 
[V:4] B,4C4 | 
[V:1] z8 | 
[V:2] B6G2 | 
[V:3] z8 | 
[V:4] D4G,2D2- | 
[V:1] z8 | 
[V:2] B4c4 | 
[V:3] z8 | 
[V:4] D2CB,A,4 | 
[V:1] z8 | 
[V:2] d4G2d2- | 
[V:3] z8 | 
[V:4] z2D,2E,2D,2 | 
[V:1] z8 | 
[V:2] d2cBA4 | 
[V:3] z8 | 
[V:4] E,2G,4F,E, | 
[V:1] z8 | 
[V:2] z2D2E2D2 | 
[V:3] z8 | 
[V:4] F,4z2F,2 | 
[V:1] z8 | 
[V:2] E2G4FE | 
[V:3] z8 | 
[V:4] G,2B,4A,G, | 
[V:1] z8 | 
[V:2] F4z2F2 | 
[V:3] z8 | 
[V:4] A,2D,2E,2D,2 | 
[V:1] z8 | 
[V:2] G2B4AG | 
[V:3] z8 | 
[V:4] E,2D,2D4 | 
[V:1] z8 | 
[V:2] A2D2E2D2 | 
[V:3] z8 | 
[V:4] z2D2C2D2 | 
[V:1] z8 | 
[V:2] E2D2d4 | 
[V:3] z8 | 
[V:4] G,2D3CB,A, | 
[V:1] z8 | 
[V:2] z2d2c2d2 | 
[V:3] z8 | 
[V:4] G,2B,2A,2D,2 | 
[V:1] z8 | 
[V:2] G2d3cBA | 
[V:3] z8 | 
[V:4] E,2D,2E,2D,2 | 
[V:1] z8 | 
[V:2] G2B2A4 | 
[V:3] z8 | 
[V:4] E,D,G,4^F,2 | 
[V:1] z8 | 
[V:2] G4z4 | 
[V:3] z8 | 
[V:4] G,4z4 | 
[V:1] d8 | 
[V:2] B8 | 
[V:3] G8 | 
[V:4] G,,8 | 
[V:1] g8 | 
[V:2] G8 | 
[V:3] C8 | 
[V:4] _E,8 | 
[V:1] f8 | 
[V:2] A4B4 | 
[V:3] F8 | 
[V:4] D,8 | 
[V:1] e8 | 
[V:2] c8 | 
[V:3] G8 | 
[V:4] C,8 | 
[V:1] f8- | 
[V:2] A4d4- | 
[V:3] F8 | 
[V:4] D,6B,,2 | 
[V:1] f8 | 
[V:2] d4c4 | 
[V:3] B4A4 | 
[V:4] B,,4F,4 | 
[V:1] f8 | 
[V:2] d4c4- | 
[V:3] B4A4 | 
[V:4] B,,4F,4 | 
[V:1] g4d4 | 
[V:2] c2B2B4- | 
[V:3] G4F4- | 
[V:4] _E,4D,4 | 
[V:1] _e8 | 
[V:2] B4A4 | 
[V:3] F4_E4 | 
[V:4] C,8 | 
[V:1] d8 | 
[V:2] B8 | 
[V:3] F8 | 
[V:4] B,,8 | 
[V:1] z8 | 
[V:2] z4B4- | 
[V:3] z8 | 
[V:4] B,,6A,,G,, | 
[V:1] z8 | 
[V:2] B4A4 | 
[V:3] z8 | 
[V:4] G,,2B,,2C,2D,2 | 
[V:1] z8 | 
[V:2] B4A4- | 
[V:3] z8 | 
[V:4] G,,2D,4C,2 | 
[V:1] z8 | 
[V:2] A2G2G4- | 
[V:3] z8 | 
[V:4] D,2B,,2C,2_E,2- | 
[V:1] z8 | 
[V:2] G4^F4 | 
[V:3] z8 | 
[V:4] E,D,C,B,,A,,4 | 
[V:1] z4d4- | 
[V:2] G4B4- | 
[V:3] z4G4- | 
[V:4] G,,6A,,2 | 
[V:1] d4d4 | 
[V:2] B4A4 | 
[V:3] G4F4 | 
[V:4] B,,2C,2D,4 | 
[V:1] d4d4 | 
[V:2] B4A4- | 
[V:3] G4F4 | 
[V:4] G,,4D,4 | 
[V:1] _e4B4 | 
[V:2] A2G2G4- | 
[V:3] _E4D4- | 
[V:4] C,4G,,4 | 
[V:1] c8 | 
[V:2] G4^F4 | 
[V:3] D4C4 | 
[V:4] A,,8 | 
[V:1] B8 | 
[V:2] G8- | 
[V:3] D8 | 
[V:4] G,,8 | 
[V:1] c8- | 
[V:2] G8- | 
[V:3] _E8- | 
[V:4] C,8- | 
[V:1] c8 | 
[V:2] G8- | 
[V:3] E8 | 
[V:4] C,8 | 
[V:1] B8 ||  
[V:2] G8 ||  
[V:3] D8 ||  
[V:4] G,,8 ||  
[V:1]  [K:F] [K:clef=treble-8][M:2/1]z8 | 
[V:2]  [K:F] [K:clef=treble-8][M:2/1]G6FG | 
[V:3]  [K:F] [K:clef=treble-8][M:2/1]z8 | 
[V:4]  [K:F] [K:clef=bass][M:2/1]z8 | 
[V:1] A6GA | 
[V:2] A2F2F4 | 
[V:3] z8 | 
[V:4] z8 | 
[V:1] B2G2G4 | 
[V:2] z2B4AB | 
[V:3] z8 | 
[V:4] z8 | 
[V:1] z2c4Bc | 
[V:2] c2A2A4 | 
[V:3] z8 | 
[V:4] z8 | 
[V:1] d2B2B4 | 
[V:2] z2G4FG | 
[V:3] z8 | 
[V:4] z8 | 
[V:1] z2A4GA | 
[V:2] AGFEF4 | 
[V:3] z8 | 
[V:4] z8 | 
[V:1] BAGFG4 | 
[V:2] G4z2G2 | 
[V:3] z8 | 
[V:4] z8 | 
[V:1] A4z2A2 | 
[V:2] F2A3BcA | 
[V:3] z8 | 
[V:4] z8 | 
[V:1] G2B3cdB | 
[V:2] B2G2G4 | 
[V:3] z8 | 
[V:4] z8 | 
[V:1] c2A2A4 | 
[V:2] z4c4 | 
[V:3] z8 | 
[V:4] z8 | 
[V:1] z4d4 | 
[V:2] B2d3efd | 
[V:3] z8 | 
[V:4] z8 | 
[V:1] c2e3fge | 
[V:2] e2c2c4 | 
[V:3] z8 | 
[V:4] z8 | 
[V:1] f2d2d4 | 
[V:2] z2f4ed | 
[V:3] z8 | 
[V:4] z8 | 
[V:1] z2g4fe | 
[V:2] e2c2e4 | 
[V:3] z8 | 
[V:4] z8 | 
[V:1] f2d2f4 | 
[V:2] d4z2d2 | 
[V:3] z8 | 
[V:4] z8 | 
[V:1] _e4z2_e2 | 
[V:2] c2A2c4 | 
[V:3] z8 | 
[V:4] z8 | 
[V:1] d2B2d4 | 
[V:2] B2G2B4 | 
[V:3] z8 | 
[V:4] z8 | 
[V:1] c2A2c4 | 
[V:2] A2c4BA | 
[V:3] z8 | 
[V:4] z8 | 
[V:1] B2d4cB | 
[V:2] G2B4AG | 
[V:3] z8 | 
[V:4] z8 | 
[V:1] A2c4BA | 
[V:2] F4c3d | 
[V:3] z8 | 
[V:4] z8 | 
[V:1] G4d3e | 
[V:2] _e2d2B2d2- | 
[V:3] z8 | 
[V:4] z8 | 
[V:1] f2e2c2_e2- | 
[V:2] d2c2A2c2- | 
[V:3] z8 | 
[V:4] z8 | 
[V:1] e2d2B2d2- | 
[V:2] c2B2G4 | 
[V:3] z8 | 
[V:4] z8 | 
[V:1] d2c2A4 | 
[V:2] z4c4 | 
[V:3] z8 | 
[V:4] z8 | 
[V:1] z4d4 | 
[V:2] B3AF2G2 | 
[V:3] z8 | 
[V:4] z8 | 
[V:1] c3BG2A2 | 
[V:2] C4z2c2 | 
[V:3] z8 | 
[V:4] z8 | 
[V:1] D4z2d2 | 
[V:2] d2f4ed | 
[V:3] z8 | 
[V:4] z8 | 
[V:1] e2g4fe | 
[V:2] c4B4 | 
[V:3] z8 | 
[V:4] z8 | 
[V:1] d4c4 | 
[V:2] z2B2A2c2- | 
[V:3] z8 | 
[V:4] z8 | 
[V:1] z2c2B2d2- | 
[V:2] c2BAG4 | 
[V:3] z8 | 
[V:4] z8 | 
[V:1] d2cBA4 | 
[V:2] F4z2F2 | 
[V:3] z8 | 
[V:4] z8 | 
[V:1] G4z2G2 | 
[V:2] G2C2G4 | 
[V:3] z8 | 
[V:4] z8 | 
[V:1] A2D2A4 | 
[V:2] F4z2F2 | 
[V:3] z8 | 
[V:4] z8 | 
[V:1] G4z2G2 | 
[V:2] G2C2G4 | 
[V:3] z8 | 
[V:4] z8 | 
[V:1] A2D2A4 | 
[V:2] F4z2c2 | 
[V:3] z8 | 
[V:4] z8 | 
[V:1] G4z2d2 | 
[V:2] d2e2f2B2 | 
[V:3] z8 | 
[V:4] z8 | 
[V:1] e2f2g2c2 | 
[V:2] c2d2G2A2 | 
[V:3] z8 | 
[V:4] z8 | 
[V:1] d2e2A2B2 | 
[V:2] B2c3BG2 | 
[V:3] z8 | 
[V:4] z8 | 
[V:1] c2d3cA2 | 
[V:2] A2B2F2f2- | 
[V:3] z8 | 
[V:4] z8 | 
[V:1] B2c2G2g2- | 
[V:2] f2e2d2c2 | 
[V:3] z8 | 
[V:4] z8 | 
[V:1] g2f2e2d2 | 
[V:2] B2A2G3F/G/ | 
[V:3] z8 | 
[V:4] z8 | 
[V:1] c2B2A3G/A/ | 
[V:2] A2G4F2 | 
[V:3] z8 | 
[V:4] z8 | 
[V:1] B2A4G2 | 
[V:2] G2A2B4 | 
[V:3] z8 | 
[V:4] z8 | 
[V:1] A8 ||  
[V:2] A8 ||  
[V:3] z8 ||  
[V:4] z8 ||  
[V:1]  [K:F] [K:clef=treble-8][M:2/1]z8 | 
[V:2]  [K:F] [K:clef=treble-8][M:2/1]z8 | 
[V:3]  [K:F] [K:clef=treble-8][M:2/1]z8 | 
[V:4]  [K:F] [K:clef=bass][M:2/1]G,6F,G, | 
[V:1] z8 | 
[V:2] z8 | 
[V:3] z8 | 
[V:4] A,2G,4F,2 | 
[V:1] z8 | 
[V:2] G6FG | 
[V:3] z8 | 
[V:4] G,3F,E,2D,2 | 
[V:1] z8 | 
[V:2] A2G4F2 | 
[V:3] z8 | 
[V:4] C,2B,,2A,,4 | 
[V:1] z8 | 
[V:2] GABcd4 | 
[V:3] z8 | 
[V:4] G,,2G,4F,G, | 
[V:1] z8 | 
[V:2] c2B2A4 | 
[V:3] z8 | 
[V:4] A,2G,4F,2 | 
[V:1] z8 | 
[V:2] G2d4cd | 
[V:3] z8 | 
[V:4] G,2B,4A,2 | 
[V:1] z8 | 
[V:2] e2d4c2 | 
[V:3] z8 | 
[V:4] G,2F,2E,4 | 
[V:1] z8 | 
[V:2] d2f4e2 | 
[V:3] z8 | 
[V:4] D,2A,4G,A, | 
[V:1] z8 | 
[V:2] d2c2B4 | 
[V:3] z8 | 
[V:4] B,2A,4G,2 | 
[V:1] z8 | 
[V:2] A6GA | 
[V:3] z8 | 
[V:4] A,2F,4E,2 | 
[V:1] z8 | 
[V:2] B2A4G2 | 
[V:3] z8 | 
[V:4] D,2C,2B,,4 | 
[V:1] c6Bc | 
[V:2] A6GA | 
[V:3] E6DE | 
[V:4] A,,6B,,A,, | 
[V:1] d2c4B2 | 
[V:2] B2A4G2 | 
[V:3] F2E4D2 | 
[V:4] D,2A,,B,,C,A,,B,,2 | 
[V:1] c4z4 | 
[V:2] A4z2A2 | 
[V:3] E4z4 | 
[V:4] A,,8 | 
[V:1] z8 | 
[V:2] B2c2d2e2 | 
[V:3] z8 | 
[V:4] z2A,2B,2G,2 | 
[V:1] z8 | 
[V:2] f2g2e2f2 | 
[V:3] z8 | 
[V:4] A,2B,2G,2A,2- | 
[V:1] z8 | 
[V:2] edd4^c2 | 
[V:3] z8 | 
[V:4] A,2F,2E,4 | 
[V:1] f6ef | 
[V:2] d6cd | 
[V:3] A6GA | 
[V:4] D,6E,D, | 
[V:1] g2f4e2 | 
[V:2] e2d4^c2 | 
[V:3] B2A4G2 | 
[V:4] G,2D,E,F,D,E,2 | 
[V:1] f6ef | 
[V:2] d6cd | 
[V:3] A6GA | 
[V:4] D,6E,D, | 
[V:1] g2f4e2 | 
[V:2] e2d4^c2 | 
[V:3] B2A4G2 | 
[V:4] G,2D,E,F,D,E,2 | 
[V:1] f4z4 | 
[V:2] d4z2d2- | 
[V:3] A4z4 | 
[V:4] D,4z4 | 
[V:1] z8 | 
[V:2] def2B2f2- | 
[V:3] z8 | 
[V:4] D3EF2D2 | 
[V:1] z8 | 
[V:2] fedcB2f2- | 
[V:3] z8 | 
[V:4] F3EDCB,A, | 
[V:1] z8 | 
[V:2] fed2cBB2- | 
[V:3] z8 | 
[V:4] G,2F,2_E,2D,2 | 
[V:1] z8 | 
[V:2] B2A2B4 | 
[V:3] z8 | 
[V:4] C,4z4 | 
[V:1] z2d4cd | 
[V:2] z2B4AB | 
[V:3] z2F4_EF | 
[V:4] B,,6C,B,, | 
[V:1] _e2d4c2 | 
[V:2] c2B4A2 | 
[V:3] G2F4_E2 | 
[V:4] _E,2B,,C,D,B,,C,2 | 
[V:1] d6cd | 
[V:2] B6AB | 
[V:3] F6_EF | 
[V:4] B,,6C,B,, | 
[V:1] _e2d4c2 | 
[V:2] c2B4A2 | 
[V:3] G2F4_E2 | 
[V:4] _E,2B,,C,D,B,,C,2 | 
[V:1] d4z4 | 
[V:2] B4z2B2- | 
[V:3] F4z4 | 
[V:4] B,,8 | 
[V:1] z8 | 
[V:2] Bcd2G2d2- | 
[V:3] z8 | 
[V:4] B,3CD2G,2 | 
[V:1] z8 | 
[V:2] dcBAG2d2- | 
[V:3] z8 | 
[V:4] D3CB,A,G,F, | 
[V:1] z8 | 
[V:2] dcB2AGG2- | 
[V:3] z8 | 
[V:4] E,2D,2C,2B,,2 | 
[V:1] z8 | 
[V:2] G2^F2G4 | 
[V:3] z8 | 
[V:4] A,,4z4 | 
[V:1] z2B4AB | 
[V:2] z2G4FG | 
[V:3] z2D4CD | 
[V:4] G,,6A,,G,, | 
[V:1] c2B4A2 | 
[V:2] A2G4^F2 | 
[V:3] _E2D4C2 | 
[V:4] C,2G,,A,,B,,G,,A,,2 | 
[V:1] B6AB | 
[V:2] G6FG | 
[V:3] D6CD | 
[V:4] G,,6A,,G,, | 
[V:1] c2B4A2 | 
[V:2] A2G4^F2 | 
[V:3] _E2D4C2 | 
[V:4] C,2G,,A,,B,,G,,A,,2 | 
[V:1] B4z2B2- | 
[V:2] G4z2G2- | 
[V:3] D8 | 
[V:4] G,,4G,,4- | 
[V:1] BABcdcde | 
[V:2] GFGABABc | 
[V:3] z8 | 
[V:4] G,,4G,4 | 
[V:1] fefgagfe | 
[V:2] dcdefedc | 
[V:3] z8 | 
[V:4] D,8 | 
[V:1] fedcd2_e2- | 
[V:2] dcBAB2c2- | 
[V:3] z8 | 
[V:4] D,4G,2C,2- | 
[V:1] edg4^f2 | 
[V:2] cBG2A4 | 
[V:3] z8 | 
[V:4] C,D,_E,2D,4 | 
[V:1] g8- | 
[V:2] G8- | 
[V:3] d6B2 | 
[V:4] G,,8- | 
[V:1] g8 ||  
[V:2] G8 ||  
[V:3] B8 ||  
[V:4] G,,8 ||  
[V:1]  [K:F] [K:clef=treble-8][M:2/1]d4d4 | 
[V:2]  [K:F] [K:clef=treble-8][M:2/1]z8 | 
[V:3]  [K:F] [K:clef=treble-8][M:2/1]z8 | 
[V:4]  [K:F] [K:clef=bass][M:2/1]z8 | 
[V:1] c2A2c3B | 
[V:2] c4c4 | 
[V:3] z8 | 
[V:4] z8 | 
[V:1] G4z4 | 
[V:2] B2G2B3A | 
[V:3] z8 | 
[V:4] z8 | 
[V:1] A4A4 | 
[V:2] F4z4 | 
[V:3] z8 | 
[V:4] z8 | 
[V:1] G2E2G3F | 
[V:2] G4G4 | 
[V:3] z8 | 
[V:4] z8 | 
[V:1] D4z2A2- | 
[V:2] F2D2F3E | 
[V:3] z8 | 
[V:4] z8 | 
[V:1] A2G2B3c | 
[V:2] C4z2G2- | 
[V:3] z8 | 
[V:4] z8 | 
[V:1] d4c4- | 
[V:2] G2F2A3B | 
[V:3] z8 | 
[V:4] z8 | 
[V:1] c2BAG4 | 
[V:2] c4B4- | 
[V:3] z8 | 
[V:4] z8 | 
[V:1] z2d4c2 | 
[V:2] B2AGF4 | 
[V:3] z8 | 
[V:4] z8 | 
[V:1] e3fg4 | 
[V:2] z2c4B2 | 
[V:3] z8 | 
[V:4] z8 | 
[V:1] f6ed | 
[V:2] d3ef4 | 
[V:3] z8 | 
[V:4] z8 | 
[V:1] c4g4- | 
[V:2] e6dc | 
[V:3] z8 | 
[V:4] z8 | 
[V:1] g2f2d3e | 
[V:2] B4f4- | 
[V:3] z8 | 
[V:4] z8 | 
[V:1] f2g2e4 | 
[V:2] f2e2c3d | 
[V:3] z8 | 
[V:4] z8 | 
[V:1] z2d2f4 | 
[V:2] e2f2d4 | 
[V:3] z8 | 
[V:4] z8 | 
[V:1] e4c4 | 
[V:2] z2c2_e4 | 
[V:3] z8 | 
[V:4] z8 | 
[V:1] z2B2d4 | 
[V:2] d4B4 | 
[V:3] z8 | 
[V:4] z8 | 
[V:1] c4A4 | 
[V:2] z2A2c4 | 
[V:3] z8 | 
[V:4] z8 | 
[V:1] z2G2B4 | 
[V:2] B4G4 | 
[V:3] z8 | 
[V:4] z8 | 
[V:1] A4F4 | 
[V:2] z2F2A4 | 
[V:3] z8 | 
[V:4] z8 | 
[V:1] z2G3FG2 | 
[V:2] G4E4 | 
[V:3] z8 | 
[V:4] z8 | 
[V:1] A2D2z2A2 | 
[V:2] z2F3EF2 | 
[V:3] z8 | 
[V:4] z8 | 
[V:1] B2c2d3B | 
[V:2] G2C2z2G2 | 
[V:3] z8 | 
[V:4] z8 | 
[V:1] c2d2A4 | 
[V:2] A2B2c3A | 
[V:3] z8 | 
[V:4] z8 | 
[V:1] z2A2B2G2 | 
[V:2] B2c2G4 | 
[V:3] z8 | 
[V:4] z8 | 
[V:1] A2B2c2A2 | 
[V:2] z2G2A2F2 | 
[V:3] z8 | 
[V:4] z8 | 
[V:1] B2c2d4 | 
[V:2] G2A2B2G2 | 
[V:3] z8 | 
[V:4] z8 | 
[V:1] z2d2e2c2 | 
[V:2] A2B2c4 | 
[V:3] z8 | 
[V:4] z8 | 
[V:1] d2e2f2d2 | 
[V:2] z2c2d2B2 | 
[V:3] z8 | 
[V:4] z8 | 
[V:1] e2f2g4 | 
[V:2] c2d2e2c2 | 
[V:3] z8 | 
[V:4] z8 | 
[V:1] z2G2A2F2 | 
[V:2] d2e2f4 | 
[V:3] z8 | 
[V:4] z8 | 
[V:1] G2A2B2c2 | 
[V:2] z2F2G2E2 | 
[V:3] z8 | 
[V:4] z8 | 
[V:1] d2B2c2d2 | 
[V:2] F2G2A2B2 | 
[V:3] z8 | 
[V:4] z8 | 
[V:1] e2f2g2e2 | 
[V:2] c2A2B2c2 | 
[V:3] z8 | 
[V:4] z8 | 
[V:1] f2g2a4 | 
[V:2] d2e2f2d2 | 
[V:3] z8 | 
[V:4] z8 | 
[V:1] z2a2b2g2 | 
[V:2] e2f2g4 | 
[V:3] z8 | 
[V:4] z8 | 
[V:1] b4a4 | 
[V:2] z2g2a2f2 | 
[V:3] z8 | 
[V:4] z8 | 
[V:1] z2f2g2e2 | 
[V:2] a4g4 | 
[V:3] z8 | 
[V:4] z8 | 
[V:1] g4f4 | 
[V:2] z2e2f2d2 | 
[V:3] z8 | 
[V:4] z8 | 
[V:1] z2d2e2c2 | 
[V:2] f4e4 | 
[V:3] z8 | 
[V:4] z8 | 
[V:1] e4d4 | 
[V:2] z2c2d2B2 | 
[V:3] z8 | 
[V:4] z8 | 
[V:1] z2B2c2A2 | 
[V:2] d4c4 | 
[V:3] z8 | 
[V:4] z8 | 
[V:1] c4B4 | 
[V:2] z2A2B2G2 | 
[V:3] z8 | 
[V:4] z8 | 
[V:1] z2G2A2c2- | 
[V:2] B4A4 | 
[V:3] z8 | 
[V:4] z8 | 
[V:1] c2BAB2G2 | 
[V:2] z2F2G2B2- | 
[V:3] z8 | 
[V:4] z8 | 
[V:1] d4c2f2 | 
[V:2] B2AGA2F2 | 
[V:3] z8 | 
[V:4] z8 | 
[V:1] e2d4c2 | 
[V:2] c4B2_e2 | 
[V:3] z8 | 
[V:4] z8 | 
[V:1] f2e2d4 | 
[V:2] d2c4B2 | 
[V:3] z8 | 
[V:4] z8 | 
[V:1] c2B2_e4 | 
[V:2] _e2d2c4 | 
[V:3] z8 | 
[V:4] z8 | 
[V:1] d2c4B2 | 
[V:2] B2A2d4 | 
[V:3] z8 | 
[V:4] z8 | 
[V:1] _e2d2c4 | 
[V:2] c2B4A2 | 
[V:3] z8 | 
[V:4] z8 | 
[V:1] B2A2d4 | 
[V:2] d2c2B4 | 
[V:3] z8 | 
[V:4] z8 | 
[V:1] c2B4A2 | 
[V:2] A2G2c4 | 
[V:3] z8 | 
[V:4] z8 | 
[V:1] d2c2B4 | 
[V:2] B2A4G2 | 
[V:3] z8 | 
[V:4] z8 | 
[V:1] A2G3^F^FE | 
[V:2] c2B2A4 | 
[V:3] z8 | 
[V:4] z8 | 
[V:1] G8 ||  
[V:2] G8 ||  
[V:3] z8 ||  
[V:4] z8 ||  



